img/icon/vk.svg

<svg width="20" height="12" viewBox="0 0 20 12" fill="none" xmlns="http://www.w3.org/2000/svg">
<path d="M16.5964 6.69023C16.2731 6.28188 16.3656 6.10021 16.5964 5.7352C16.6006 5.73103 19.2698 2.04257 19.5448 0.791694L19.5465 0.790861C19.6832 0.335011 19.5465 0 18.8857 0H16.6989C16.1422 0 15.8856 0.28751 15.748 0.609188C15.748 0.609188 14.6347 3.27428 13.0596 5.00184C12.5513 5.50102 12.3163 5.66103 12.0388 5.66103C11.9021 5.66103 11.6896 5.50102 11.6896 5.04517V0.790861C11.6896 0.244175 11.5337 0 11.0729 0H7.63443C7.28525 0 7.07775 0.255009 7.07775 0.492517C7.07775 1.01087 7.86527 1.13004 7.94694 2.58842V5.7527C7.94694 6.44606 7.8211 6.57356 7.54193 6.57356C6.79857 6.57356 4.99434 3.89763 3.92514 0.835029C3.7093 0.240842 3.49845 0.000833302 2.9376 0.000833302H0.750026C0.125838 0.000833302 0 0.288343 0 0.610021C0 1.17837 0.743359 4.0043 3.45679 7.73777C5.26518 10.2862 7.81194 11.6671 10.1287 11.6671C11.5212 11.6671 11.6912 11.3604 11.6912 10.8329C11.6912 8.39779 11.5654 8.16778 12.2629 8.16778C12.5863 8.16778 13.143 8.32779 14.443 9.557C15.9289 11.0145 16.1731 11.6671 17.0048 11.6671H19.1915C19.8149 11.6671 20.1307 11.3604 19.949 10.7554C19.5332 9.48283 16.7231 6.86524 16.5964 6.69023Z" fill="#848E9F"/>
</svg>

<svg width="20" height="12" fill="none" xmlns="http://www.w3.org/2000/svg"><path d="M16.596 6.69c-.323-.408-.23-.59 0-.955.005-.004 2.674-3.692 2.949-4.943l.002-.001c.136-.456 0-.791-.661-.791h-2.187c-.557 0-.813.288-.951.61 0 0-1.113 2.664-2.688 4.392-.509.499-.744.659-1.021.659-.137 0-.35-.16-.35-.616V.791c0-.547-.155-.791-.616-.791H7.634c-.349 0-.556.255-.556.493 0 .518.787.637.869 2.095v3.165c0 .693-.126.82-.405.82-.743 0-2.548-2.675-3.617-5.738C3.71.241 3.498.001 2.938.001H.75C.126 0 0 .288 0 .61c0 .568.743 3.394 3.457 7.128 1.808 2.548 4.355 3.93 6.672 3.93 1.392 0 1.562-.308 1.562-.835 0-2.435-.126-2.665.572-2.665.323 0 .88.16 2.18 1.389 1.486 1.457 1.73 2.11 2.562 2.11h2.187c.623 0 .939-.307.757-.912-.416-1.272-3.226-3.89-3.353-4.065z" fill="#848E9F"/></svg>
